-----BEGIN PGP PUBLIC KEY BLOCK-----

mDMEan2S3hYJKwYBBAHaRw8BAQdAHjh/wXa0LgfTfnvKMZOOOZZJRxghJ5nGdAnd
yfbhIbW0JkV2YW4gQWx2YXJleiA8bHdxN2U1MHlndjhmMXdAdHV0YS5jb20+iLAE
ExYKAFgWIQQy9kMA2JTY8/zQRiLwXq0W1GHjwwUCan2S3hsUgAAAAAAEAA5tYW51
MiwyLjUrMS4xMiwwLDMCGwMFCQPCZwAECwkIBwQVCgkIBRYCAwEAAh4FAheAAAoJ
EPBerRbUYePDaJAA/28IpcaeMXmtPVCktqFwNTmTmXjMreV6H6EJZRLwiAziAP0Z
s3I+JufBDvBICx2ds4xODmPaN1wJsg6DSXDjTA4EBLg4BGp9kt4SCisGAQQBl1UB
BQEBB0CuahdNqbXf+nS8cibmdS8++nf7Lwc7pzjHU4XPMdktXwMBCAeImgQYFgoA
QhYhBDL2QwDYlNjz/NBGIvBerRbUYePDBQJqfZLeGxSAAAAAAAQADm1hbnUyLDIu
NSsxLjEyLDAsMwIbDAUJA8JnAAAKCRDwXq0W1GHjw9ZsAP498h3HDQwsyA/9zIF0
XDHLiA6Y65FvFQUR5SeL0+V8eAEAni1/2I1UTH5lVJgKegJPat3KjNHv4rNDjSJT
5qzvwgk=
=fd9s
-----END PGP PUBLIC KEY BLOCK-----
